X: 4
P: Hey Jude (G)
C: Beatles
R: jig
N: This is NOT the original version of the tune!!!
M: 6/8
L: 1/8
K: G
d3 \
| "G"B6- | B2B d2e | "D"A6 | z3 "D7"A2B \
| c3 g3- | g2g f2d | "G"edc B3- | B3 d3 |
| "C"e2e- e2e | a2g fge | "G"d6 | G2A B2e \
| "D7"d3- d2d | c2B F2G- | "G"G6 "->Coda"| z6 |]
[| "G"z2G ge2 | ed2 d2c | "C"e3 g2e- | "/B"e3 g2c- \
| "Am"c3 g2e- | "/G"e2d c2d- | "D7/F"d3 e2d- |
| "D7"d3 c2B- | "G"B2A G3- |1 G6 :|2 "G"G2G d2e | "G7"=f2e f3 | "D7"^f2g a3- | a3 "d.C."|]
"Coda"\
|: "G"[G6D6] | [B3G3] [d3B3] | "F"[a=f][ge][af] [g3-e3-] | [g3e3] z3 \
| "C"[a=f][ge][af] [g3-e3-] | [g2-e2-][=f-d-] [f2d2][ec] | "G"[d6-B6-] | [d6B6] :|
